X: 1
T:Butterfly, The
R:slip jig
L:1/8
M:9/8
K:G
"Em"B2E G2E "D"F3|"Em"B2E G2E "D"FED|"Em"B2E G2E "D"F3|"G"B2d d2B "D"AFD:|
"G"B2d "Gsus"e2f "G"g3|B2d g2e "D"dBA|"G"B2d "Gsus"e2f "G"g2a|"Em"b2a g2e "D"dBA:|
"Em"B3 B2A G2A|B3 BAB "D"dBA|"Em"B3 B2A G2A|"G"B2d "Em"g2e "D"dBA:|
|"^final""Em"B3-B3-B3||